src/images/githubred.svg

<svg width="45" height="44" viewBox="0 0 45 44" fill="none" xmlns="http://www.w3.org/2000/svg">
<path d="M9.93542 27.8814C11.8253 31.2573 16.5303 32.6036 18.6465 32.8548C17.4654 33.9399 17.1701 35.2159 17.1701 35.7183C13.7742 37.0747 11.5595 35.1154 10.8213 33.7591C10.0831 32.4027 6.39191 30.2927 6.09662 31.4984C5.80133 32.7041 7.57308 31.7998 8.75425 34.3619C9.93542 36.924 10.8213 37.3761 12.1501 38.5818C13.2132 39.5463 15.9397 38.9837 17.1701 38.5818V42.5002C17.1701 44.791 14.9062 43.9571 13.7742 43.2538C11.8056 42.3998 7.04155 39.5765 3.73428 35.1154C-0.399812 29.5392 -2.02392 18.3866 3.73428 10.5497C9.49248 2.71278 17.1701 0 22.3377 0C27.5053 0 35.9211 2.41136 41.384 10.5497C46.8469 18.688 45.5181 29.5392 41.384 35.1154C37.25 40.6917 31.9347 43.5552 29.8676 43.8566C27.8006 44.158 28.0959 42.5002 28.0959 38.5818C28.0959 35.447 27.3084 33.4576 26.9147 32.8548C36 31 35.7618 27.4185 36.5 23.5C37.0906 20.3652 35.6751 16.5781 34.5923 15.5231C35.5373 12.3884 34.5923 10.198 34.0017 9.49473C32.23 9.49473 29.3263 11.1023 28.0959 11.9061C23.9618 10.3387 19.0895 11.253 17.1701 11.9061C15.9889 10.2181 12.4454 9.59521 10.8213 9.49473C9.75824 11.7855 10.3784 14.4682 10.8213 15.5231C8.6066 17.9345 7.57308 23.6615 9.93542 27.8814Z" fill="#E76060"/>
</svg>

<svg xmlns="http://www.w3.org/2000/svg" width="45" height="44" fill="none" xmlns:v="https://vecta.io/nano"><path d="M9.935 27.881c1.89 3.376 6.595 4.722 8.711 4.973-1.181 1.085-1.476 2.361-1.476 2.864-3.396 1.356-5.611-.603-6.349-1.959s-4.429-3.466-4.725-2.261 1.476.301 2.658 2.863 2.067 3.014 3.396 4.22c1.063.965 3.79.402 5.02 0V42.5c0 2.291-2.264 1.457-3.396.754-1.969-.854-6.733-3.677-10.04-8.138-4.134-5.576-5.758-16.729 0-24.566S17.17 0 22.338 0s13.583 2.411 19.046 10.55 4.134 18.99 0 24.566-9.449 8.44-11.516 8.741-1.772-1.356-1.772-5.275c0-3.135-.788-5.124-1.181-5.727C36 31 35.762 27.419 36.5 23.5c.591-3.135-.825-6.922-1.908-7.977.945-3.135 0-5.325-.591-6.028-1.772 0-4.675 1.608-5.906 2.411-4.134-1.567-9.006-.653-10.926 0-1.181-1.688-4.725-2.311-6.349-2.411-1.063 2.291-.443 4.973 0 6.028-2.215 2.411-3.248 8.138-.886 12.358z" fill="#e76060"/></svg>
